!!!!SEGMENT: pl-kk--kk-i-7--074_lilius-franciszek--domine-rex-deus-abraham.krn
!!!cenid: 16xx:913
!!!COM: Lilius, Franciszek
!!!COM-rismid: pe30020509
!!!CDT: ~1600-1657
!!!CNT: Polish
!!!OTL: Domine rex Deus Abraham
!!!PDT:
!!!AGN: Sacred
!!!SMS-siglum: PL-Kk
!!!SMS-shelfmark: Kk.I.7
!!!SMS-shelfwork: 074 W
!!!SMS-variant:
!!!SMS-altvar:
!!!NIFC-rismid: 300258151
!!!URL-scan: http://repozytorium.nifc.pl/skany/pl-kk-nut--i-7
!!!ONB-nifc: UWAGA: C (skan 0066, s.124), A (0152, s.124), T(0229, s.120-121), B(0316, s.118). Uwaga: 5 głosów (Tenor 1mus i 2dus). Następny utwór: Recordare Domine
!!!key:
**kern	**text	**text	**kern	**text	**text	**kern	**text	**text	**kern	**text	**text	**kern	**text	**text
*part5	*part5	*part5	*part4	*part4	*part4	*part3	*part3	*part3	*part2	*part2	*part2	*part1	*part1	*part1
*staff5	*staff5	*staff5	*staff4	*staff4	*staff4	*staff3	*staff3	*staff3	*staff2	*staff2	*staff2	*staff1	*staff1	*staff1
*Ibass	*	*	*Itenor	*	*	*Itenor	*	*	*Itenor	*	*	*Ialto	*	*
*I"[Bassus]	*	*	*I"[Tenore] 2dus	*	*	*I"[Tenore] 1mus.	*	*	*I"[Tenore]	*	*	*I"[Altus]	*	*
*I'[B]	*	*	*I'[T] II	*	*	*I'[T] I	*	*	*I'[T]	*	*	*I'[A]	*	*
*clefF4	*	*	*clefC4	*	*	*clefC4	*	*	*clefC4	*	*	*clefC3	*	*
*k[]	*	*	*k[]	*	*	*k[]	*	*	*k[]	*	*	*k[]	*	*
*d:	*	*	*d:	*	*	*d:	*	*	*d:	*	*	*d:	*	*
*M2/1	*	*	*M2/1	*	*	*M2/1	*	*	*M2/1	*	*	*M2/1	*	*
*met(C|)	*	*	*met(C|)	*	*	*met(C|)	*	*	*met(C|)	*	*	*met(C|)	*	*
=1-	=1-	=1-	=1-	=1-	=1-	=1-	=1-	=1-	=1-	=1-	=1-	=1-	=1-	=1-
!LO:TX:t=P:problem=kreska pseudotaktowa	!	!	!LO:TX:a:t=3.	!	!	!	!	!	!LO:TX:a:t=a 5\nF. L.	!	!	!LO:TX:t=P:problem=kreska pseudotaktowa	!	!
0r	.	.	0r	.	.	0r	.	.	1A\	Do-	.	1r	.	.
!	!	!	!	!	!	!	!	!	!LO:TX:t=P:problem=kreska pseudotaktowa	!	!	!	!	!
*	*	*	*	*	*	*	*	*	*	*	*	*lig	*	*
.	.	.	.	.	.	.	.	.	1E/	-mi-	.	1e\	Do-	.
=2-	=2-	=2-	=2-	=2-	=2-	=2-	=2-	=2-	=2-	=2-	=2-	=2-	=2-	=2-
*lig	*	*	*	*	*	*	*	*	*	*	*	*	*	*
!	!	!	!LO:TX:t=P:problem=kreska pseudotaktowa	!	!	!LO:TX:t=P:problem=kreska pseudotaktowa	!	!	!	!	!	!	!	!
*	*	*	*	*	*	*	*	*	*lig	*	*	*col	*	*
1E\	Do-	.	1r	.	.	1r	.	.	1G/	-ne	.	2.B/	.	.
*	*	*	*	*	*	*	*	*	*	*	*	*Xlig	*	*
!	!	!	!	!	!	!	!	!	!	!	!	!LO:TX:t=P:problem=kreska pseudotaktowa	!	!
.	.	.	.	.	.	.	.	.	.	.	.	4B/	mi-	.
*	*	*	*lig	*	*	*	*	*	*	*	*	*Xcol	*	*
1.AA/	.	.	1A\	Do-	.	2r	.	.	1A\	.	.	2c/	-ne	.
*	*	*	*	*	*	*lig	*	*	*	*	*	*	*	*
!	!	!	!	!	!	!LO:TX:t=P:problem=all\right&colon; global	!	!	!	!	!	!	!	!
.	.	.	.	.	.	1e\	Do-	.	.	.	.	2.c/	Rex	.
=3-	=3-	=3-	=3-	=3-	=3-	=3-	=3-	=3-	=3-	=3-	=3-	=3-	=3-	=3-
*	*	*	*col	*	*	*	*	*	*	*	*	*	*	*
!	!	!	!	!	!	!	!	!	!LO:TX:t=P:global:problem=rozdzielacz słów	!	!	!	!	!
.	.	.	2.E/	.	.	.	.	.	1c\,	.	.	.	.	.
.	.	.	.	.	.	.	.	.	.	.	.	4d\	.	.
!	!	!	!	!	!	!	!	!	!	!	!	!LO:TX:t=P:problem=all\right&colon; global	!	!
*Xlig	*	*	*Xlig	*	*	*	*	*	*Xlig	*	*	*	*	*
!LO:TX:t=P:problem=kreska pseudotaktowa	!	!	!	!	!	!	!	!	!	!	!	!	!	!
*	*	*	*	*	*	*col	*	*	*	*	*	*2\right	*	*
!	!	!	!	!	!	!	!	!	!	!	!	!LO:TX:t=P:problem=kreska pseudotaktowa	!	!
2C/	-mi-	.	.	.	.	2.A/	.	.	.	.	.	2e\	.	.
.	.	.	4E/	-mi-	.	.	.	.	.	.	.	.	.	.
*	*	*	*Xcol	*	*	*	*	*	*	*	*	*	*	*
1D\	-ne	.	1F/	-ne	.	.	.	.	1A\,	Rex	.	1d\	.	.
!	!	!	!LO:TX:t=P:problem=kreska pseudotaktowa	!	!	!	!	!	!LO:TX:t=P:problem=kreska pseudotaktowa	!	!	!	!	!
*	*	*	*	*	*	*Xlig	*	*	*	*	*	*	*	*
.	.	.	.	.	.	4G/	-mi-	.	.	.	.	.	.	.
*	*	*	*	*	*	*Xcol	*	*	*	*	*	*	*	*
!	!	!	!	!	!	!LO:TX:t=P:problem=kreska pseudotaktowa	!	!	!	!	!	!	!	!
.	.	.	.	.	.	2F/	-ne	.	.	.	.	.	.	.
=4-	=4-	=4-	=4-	=4-	=4-	=4-	=4-	=4-	=4-	=4-	=4-	=4-	=4-	=4-
2C/	Rex	.	2G/	Rex	.	0E/	Rex	.	1c\	De-	.	2e\	De-	.
!	!	!	!LO:TX:t=P:problem=kreska pseudotaktowa	!	!	!	!	!	!	!	!	!	!	!
4AA/	.	.	2A/	.	.	.	.	.	.	.	.	4c\	.	.
!LO:TX:t=P:problem=kreska pseudotaktowa	!	!	!	!	!	!	!	!	!	!	!	!LO:TX:t=P:problem=kreska pseudotaktowa	!	!
4BB/	.	.	.	.	.	.	.	.	.	.	.	4d\	.	.
*	*	*	*	*	*	*	*	*	*lig	*	*	*	*	*
4C/	De-	.	2.G/	De-	.	.	.	.	1c\	-us	.	4e\	.	.
4D/	.	.	.	.	.	.	.	.	.	.	.	4f\	.	.
!LO:TX:t=P:problem=all\right&colon; global	!	!	!	!	!	!	!	!	!	!	!	!	!	!
4E\	.	.	.	.	.	.	.	.	.	.	.	1g\	.	.
4F\	.	.	4A/	.	.	.	.	.	.	.	.	.	.	.
=5-	=5-	=5-	=5-	=5-	=5-	=5-	=5-	=5-	=5-	=5-	=5-	=5-	=5-	=5-
*lig	*	*	*	*	*	*	*	*	*	*	*	*	*	*
!	!	!	!LO:TX:t=P:problem=all\right&colon; global	!	!	!	!	!	!LO:TX:t=P:problem=kreska pseudotaktowa	!	!	!	!	!
1G\	.	.	4B\	.	.	2D/	.	.	1B\	A-	.	.	.	.
.	.	.	4c\	.	.	.	.	.	.	.	.	.	.	.
.	.	.	4d\	.	.	1G/	De-	.	.	.	.	2d\	-us	.
.	.	.	4G/	.	.	.	.	.	.	.	.	.	.	.
!	!	!	!LO:TX:t=P:problem=kreska pseudotaktowa	!	!	!	!	!	!	!	!	!LO:TX:t=P:problem=kreska pseudotaktowa	!	!
*	*	*	*	*	*	*	*	*	*Xlig	*	*	*	*	*
!LO:TX:t=P:problem=kreska pseudotaktowa	!	!	!	!	!	!	!	!	!	!	!	!	!	!
1D\	.	.	1A\	.	.	.	.	.	1A\	-bra-	.	1d\	De-	.
.	.	.	.	.	.	2F#X/	.	.	.	.	.	.	.	.
!	!	!	!	!	!	!LO:TX:t=P:problem=kreska pseudotaktowa	!	!	!	!	!	!	!	!
!	!	!	!	!	!	!LO:TX:t=P:problem=♯ below	!	!	!	!	!	!	!	!
*Xlig	*	*	*	*	*	*	*	*	*	*	*	*	*	*
=6-	=6-	=6-	=6-	=6-	=6-	=6-	=6-	=6-	=6-	=6-	=6-	=6-	=6-	=6-
*	*	*	*2\right	*	*	*	*	*	*lig	*	*	*	*	*
2GG/	-us	.	2B\	-us	.	2G/	-us	.	1G/	.	.	2d\	-us	.
2.C/	A-	.	2.e\	A-	.	4G/	A-	.	.	.	.	2.c/	A-	.
.	.	.	.	.	.	4F/	.	.	.	.	.	.	.	.
.	.	.	.	.	.	2E/	.	.	1A\	.	.	.	.	.
4BB/	.	.	4d\	.	.	.	.	.	.	.	.	4d\	.	.
2AA/	.	.	2c\	.	.	1A\	.	.	.	.	.	1e\	.	.
!LO:TX:t=P:problem=kreska pseudotaktowa	!	!	!LO:TX:t=P:problem=kreska pseudotaktowa	!	!	!	!	!	!	!	!	!	!	!
*	*	*	*	*	*	*	*	*	*Xlig	*	*	*	*	*
=7-	=7-	=7-	=7-	=7-	=7-	=7-	=7-	=7-	=7-	=7-	=7-	=7-	=7-	=7-
*2\right	*	*	*	*	*	*	*	*	*lig	*	*	*	*	*
2.E\	bra-	.	2.B\	.	.	.	.	.	1B\	.	.	.	.	.
!	!	!	!	!	!	!LO:TX:t=P:problem=♯ below	!	!	!	!	!	!LO:TX:t=P:problem=kreska pseudotaktowa	!	!
.	.	.	.	.	.	2G#X/	-bra-	.	.	.	.	2e\	-bra-	.
4E\	.	.	4B\	-bra-	.	.	.	.	.	.	.	.	.	.
!	!	!	!LO:TX:t=P:problem=kreska pseudotaktowa	!	!	!LO:TX:t=P:problem=kreska pseudotaktowa	!	!	!	!	!	!	!	!
2AA/	-am	.	1A\	-am	.	0A\	-am	.	1c\	.	.	2e\	-am	.
4AA/	do-	.	.	.	.	.	.	.	.	.	.	4c/	do-	.
4AA/	-na	.	.	.	.	.	.	.	.	.	.	4c/	-na	.
!	!	!	!	!	!	!	!	!	!	!	!	!LO:TX:t=P:problem=kreska pseudotaktowa	!	!
*	*	*	*	*	*	*	*	*	*Xlig	*	*	*	*	*
=8-	=8-	=8-	=8-	=8-	=8-	=8-	=8-	=8-	=8-	=8-	=8-	=8-	=8-	=8-
!	!	!	!	!	!	!	!	!	!LO:TX:t=P:problem=kreska pseudotaktowa	!	!	!	!	!
2D/	no-	.	1r	.	.	.	.	.	1A\	-ham	.	2f\	no-	.
!LO:TX:t=P:problem=kreska pseudotaktowa	!	!	!	!	!	!	!	!	!	!	!	!LO:TX:t=P:problem=kreska pseudotaktowa	!	!
2D/	-bis	.	.	.	.	.	.	.	.	.	.	2f\	-bis	.
2C/	Se-	Plu-	2r	.	.	0r	.	.	1c\	do-	.	2e\	Se-	Plu-
4C/	-re-	-vi-	4G/	do-	.	.	.	.	.	.	.	4e\	-re-	-vi-
!LO:TX:t=P:problem=kreska pseudotaktowa	!	!	!LO:TX:t=P:problem=kreska pseudotaktowa	!	!	!	!	!	!	!	!	!	!	!
4BB/	-ni-	.	4G/	-na	.	.	.	.	.	.	.	4d\	.	.
=9-	=9-	=9-	=9-	=9-	=9-	=9-	=9-	=9-	=9-	=9-	=9-	=9-	=9-	=9-
!	!	!	!	!	!	!LO:TX:t=P:problem=kreska pseudotaktowa	!	!	!LO:TX:t=P:problem=kreska pseudotaktowa	!	!	!	!	!
2AA/	-ta-	-am	2c\	no-	.	.	.	.	1c\	-na	.	4c/	ni-	-am
.	.	.	.	.	.	.	.	.	.	.	.	4B/	.	con-
4AA/	.	con-	4c\	-bis	.	.	.	.	.	.	.	2A/	.	-gru-
!LO:TX:t=P:problem=kreska pseudotaktowa	!	!	!LO:TX:t=P:problem=kreska pseudotaktowa	!	!	!	!	!	!	!	!	!	!	!
4BB/	.	.	4B\	.	.	.	.	.	.	.	.	.	.	.
*	*	*	*	*	*	*	*	*	*lig	*	*	*	*	*
!	!	!	!	!	!	!	!	!	!	!	!	!LO:TX:t=P:problem=kreska pseudotaktowa	!	!
2.C/	.	-gru-	4A/	Se-	.	1r	.	.	1c\	no-	.	0e\	-ta-	-en-
.	.	.	4G/	-re-	.	.	.	.	.	.	.	.	.	.
.	.	.	1A\	-ni-	Plu-	.	.	.	.	.	.	.	.	.
4D/	.	.	.	.	.	.	.	.	.	.	.	.	.	.
=10-	=10-	=10-	=10-	=10-	=10-	=10-	=10-	=10-	=10-	=10-	=10-	=10-	=10-	=10-
*	*	*	*	*	*	*	*	*	*	*	*	*custos:e	*	*
!LO:TX:t=P:problem=kreska pseudotaktowa	!	!	!	!	!	!	!	!	!	!	!	!	!	!
1E\	.	-en-	.	.	.	2r	.	.	1B\	.	.	.	.	.
!	!	!	!LO:TX:t=P:problem=♯ above	!	!	!	!	!	!	!	!	!	!	!
.	.	.	2G#X/	-ta-	-vi-	4B\	do-	.	.	.	.	.	.	.
.	.	.	.	.	.	4B\	-na	.	.	.	.	.	.	.
!	!	!	!	!	!	!	!	!	!	!	!	!LO:LB:g=original	!	!
!	!	!	!	!	!	!LO:TX:t=P:problem=kreska pseudotaktowa	!	!	!	!	!	!	!	!
*	*	*	*	*	*	*2\right	*	*	*Xlig	*	*	*	*	*
*	*	*	*custos:F	*	*	*	*	*	*	*	*	*	*	*
!	!	!	!LO:TX:t=P:problem=kreska pseudotaktowa	!	!	!	!	!	!	!	!	!	!	!
!	!	!	!	!	!	!	!	!	!LO:TX:t=P:problem=kreska pseudotaktowa	!	!	!	!	!
1AA/	-tem	-tem	1A\	-tem	-am	2c\	no-	.	1A\	-bis	.	2e\	-tem	-tem
.	.	.	.	.	.	2c\	-bis	.	.	.	.	4c/	do-	.
!	!	!	!	!	!	!	!	!	!	!	!	!LO:TX:t=P:problem=kreska pseudotaktowa	!	!
.	.	.	.	.	.	.	.	.	.	.	.	4c/	-na	.
!	!	!	!LO:LB:g=original	!	!	!	!	!	!	!	!	!	!	!
=11-	=11-	=11-	=11-	=11-	=11-	=11-	=11-	=11-	=11-	=11-	=11-	=11-	=11-	=11-
!	!	!	!LO:TX:t=P:problem=kreska pseudotaktowa	!	!	!	!	!	!	!	!	!	!	!
2rBB	.	.	1r	.	.	2G/	Se-	.	1c\	Se-	Plu-	2e\	no-	.
4C/	do-	.	.	.	.	4G/	-re-	.	.	.	.	2e\	-bis	.
*custos:F	*	*	*	*	*	*	*	*	*	*	*	*	*	*
!LO:TX:t=P:problem=kreska pseudotaktowa	!	!	!	!	!	!	!	!	!	!	!	!	!	!
!	!	!	!	!	!	!LO:TX:t=P:problem=kreska pseudotaktowa	!	!	!	!	!	!	!	!
4C/	-na	.	.	.	.	4G/	-ni-	Plu-	.	.	.	.	.	.
!LO:LB:g=original	!	!	!	!	!	!	!	!	!	!	!	!	!	!
2F\	no-	.	2r	.	.	1A\	-ta-	-vi-	1c\	-re-	-vi-	2f\	Se-	Plu-
2F\	-bis	.	4F/	do-	.	.	.	.	.	.	.	4c\	-re-	-vi-
!	!	!	!	!	!	!	!	!	!	!	!	!LO:TX:t=P:problem=kreska pseudotaktowa	!	!
.	.	.	4F/	-na	.	.	.	.	.	.	.	4d\	.	.
=12-	=12-	=12-	=12-	=12-	=12-	=12-	=12-	=12-	=12-	=12-	=12-	=12-	=12-	=12-
!	!	!	!	!	!	!LO:TX:t=P:problem=kreska pseudotaktowa	!	!	!	!	!	!	!	!
2E\	Se-	Plu-	2c\	no-	.	1G/	-tem	-am	1c\	-ni-	-am	4e\	-ni-	-am
.	.	.	.	.	.	.	.	.	.	.	.	4f\	.	.
4E\	-re-	-vi-	4c\	-bis	.	.	.	.	.	.	.	2.g\	.	con-
!LO:TX:t=P:problem=kreska pseudotaktowa	!	!	!LO:TX:t=P:problem=kreska pseudotaktowa	!	!	!	!	!	!	!	!	!	!	!
4E\	-ni-	-am	4G/	Se-	.	.	.	.	.	.	.	.	.	.
*	*	*	*	*	*	*	*	*	*lig	*	*	*	*	*
2F\	-ta-	con-	2A/	-re-	Plu-	1r	.	.	1A\	-ta-	con-	.	.	.
.	.	.	.	.	.	.	.	.	.	.	.	4f\	.	-gru-
2D/	.	-gru-	2F/	-ni-	.	.	.	.	.	.	.	1f\	.	.
=13-	=13-	=13-	=13-	=13-	=13-	=13-	=13-	=13-	=13-	=13-	=13-	=13-	=13-	=13-
!LO:TX:t=P:problem=kreska pseudotaktowa	!	!	!	!	!	!	!	!	!	!	!	!	!	!
1C/	.	.	1G/	-ta-	-vi-	4C/	do-	.	1c\	.	.	.	.	.
.	.	.	.	.	.	4C/	-na	.	.	.	.	.	.	.
.	.	.	.	.	.	2.c\	no-	.	.	.	.	2e\	-ta-	-en-
!	!	!	!	!	!	!	!	!	!	!	!	!LO:TX:t=P:problem=kreska pseudotaktowa	!	!
*	*	*	*	*	*	*	*	*	*Xlig	*	*	*	*	*
!	!	!	!LO:TX:t=P:problem=kreska pseudotaktowa	!	!	!	!	!	!	!	!	!	!	!
*	*	*	*	*	*	*	*	*	*lig	*	*	*	*	*
2FF/	tem	-en-	1F/	-tem	-am	.	.	.	1A\	.	-gru-	2f\	-te(m)	-tem
*	*	*	*	*	*	*custos:B	*	*	*	*	*	*	*	*
.	.	.	.	.	.	4c\	-bis	.	.	.	.	.	.	.
!	!	!	!	!	!	!LO:LB:g=original	!	!	!	!	!	!	!	!
!	!	!	!	!	!	!LO:TX:t=P:problem=kreska pseudotaktowa	!	!	!	!	!	!	!	!
2FF/	Se-	-tem	.	.	.	2A/	Se-	Plu-	.	.	.	1c\	Se-	con-
=14-	=14-	=14-	=14-	=14-	=14-	=14-	=14-	=14-	=14-	=14-	=14-	=14-	=14-	=14-
2C/	-re-	con-	0r	.	.	4E/	-re-	-vi-	1G/	.	.	.	.	.
.	.	.	.	.	.	4F/	-ni-	-am	.	.	.	.	.	.
2E\	-ni-	-gru-	.	.	.	1G/	-ta-	con-	.	.	.	4B/	-re-	-gru-
.	.	.	.	.	.	.	.	.	.	.	.	4c#X/	-ni-	.
!	!	!	!	!	!	!	!	!	!	!	!	!LO:TX:t=P:problem=kreska pseudotaktowa	!	!
!	!	!	!	!	!	!	!	!	!	!	!	!LO:TX:t=P:problem=♯ below	!	!
*	*	*	*	*	*	*	*	*	*Xlig	*	*	*	*	*
0D\	-ta-	-en-	.	.	.	.	.	.	1A\	.	-en-	0d\	-ta-	-en-
.	.	.	.	.	.	4F/	.	-gru-	.	.	.	.	.	.
.	.	.	.	.	.	4E/	.	.	.	.	.	.	.	.
=15-	=15-	=15-	=15-	=15-	=15-	=15-	=15-	=15-	=15-	=15-	=15-	=15-	=15-	=15-
*	*	*	*	*	*	*	*	*	*lig	*	*	*	*	*
.	.	.	2.d\	Su-	.	1F#X/	.	-en-	1A\	-tem	-tem	.	.	.
.	.	.	4d\	-per	.	.	.	.	.	.	.	.	.	.
*	*	*	*	*	*	*	*	*	*custos:G	*	*	*	*	*
!	!	!	!	!	!	!	!	!	!LO:TX:t=P:problem=kreska pseudotaktowa	!	!	!	!	!
!LO:TX:t=P:problem=kreska pseudotaktowa	!	!	!	!	!	!	!	!	!	!	!	!LO:TX:t=P:problem=kreska pseudotaktowa	!	!
1GG/	-tem	-tem	2B\	fa-	.	2G/	-tem	-tem	1G/	.	.	1d\	-tem	-tem
.	.	.	4G/	.	.	2.d\	Su-	.	.	.	.	.	.	.
.	.	.	4A/	.	.	.	.	.	.	.	.	.	.	.
!	!	!	!LO:TX:t=P:problem=kreska pseudotaktowa	!	!	!LO:TX:t=P::problem=kreska pseudotaktowa&colon;między nutą a kropką	!	!	!	!	!	!	!	!
*	*	*	*	*	*	*	*	*	*Xlig	*	*	*	*	*
!	!	!	!	!	!	!	!	!	!LO:LB:g=original	!	!	!	!	!
=16-	=16-	=16-	=16-	=16-	=16-	=16-	=16-	=16-	=16-	=16-	=16-	=16-	=16-	=16-
00r	.	.	4B\	.	.	.	.	.	1G/	Su-	.	2.g\	Su-	.
.	.	.	4c\	.	.	4c\	-per	.	.	.	.	.	.	.
.	.	.	4d\	.	.	4B\	fa-	.	.	.	.	.	.	.
.	.	.	4B\	.	.	4B\	-ci-	.	.	.	.	4f\	.	.
!	!	!	!	!	!	!LO:TX:t=P:problem=kreska pseudotaktowa	!	!	!LO:TX:t=P:problem=kreska pseudotaktowa	!	!	!	!	!
.	.	.	4c\	.	.	1A\	-em	.	1A\	-per	.	2e\	-per	.
.	.	.	4d\	.	.	.	.	.	.	.	.	.	.	.
!	!	!	!LO:TX:t=P::problem=kreska pseudotaktowa&colon;między nutą a kropką	!	!	!	!	!	!	!	!	!	!	!
.	.	.	2.e\	.	.	.	.	.	.	.	.	4c\	fa-	.
.	.	.	.	.	.	.	.	.	.	.	.	4d\	.	.
=17-	=17-	=17-	=17-	=17-	=17-	=17-	=17-	=17-	=17-	=17-	=17-	=17-	=17-	=17-
.	.	.	.	.	.	2.G/	Su-	.	1c\	fa-	.	4e\	.	.
.	.	.	4d\	-ci-	.	.	.	.	.	.	.	4f\	.	.
.	.	.	2c\	-em	.	.	.	.	.	.	.	1g\	-ci-	.
.	.	.	.	.	.	4G/	-per	.	.	.	.	.	.	.
*	*	*	*	*	*	*	*	*	*lig	*	*	*	*	*
.	.	.	2G/	ter-	.	2E/	fa-	.	1c\	-ci-	.	.	.	.
!	!	!	!	!	!	!	!	!	!	!	!	!LO:TX:t=P:problem=kreska pseudotaktowa	!	!
.	.	.	4E/	.	.	4G/	.	.	.	.	.	2g\	.	.
!	!	!	!LO:TX:t=P:problem=kreska pseudotaktowa	!	!	!LO:TX:t=P:problem=kreska pseudotaktowa	!	!	!	!	!	!	!	!
.	.	.	4F/	.	.	4A/	.	.	.	.	.	.	.	.
=18-	=18-	=18-	=18-	=18-	=18-	=18-	=18-	=18-	=18-	=18-	=18-	=18-	=18-	=18-
00r	.	.	4G/	.	.	4B\	.	.	1B\	.	.	1d\	-em	.
.	.	.	4A/	.	.	4c\	.	.	.	.	.	.	.	.
.	.	.	4B\	.	.	4d\	.	.	.	.	.	.	.	.
.	.	.	2G/	.	.	4B\	.	.	.	.	.	.	.	.
!	!	!	!LO:TX:t=P:problem=♯ below	!	!	!	!	!	!	!	!	!	!	!
*	*	*	*	*	*	*	*	*	*Xlig	*	*	*	*	*
*	*	*	*	*	*	*	*	*	*lig	*	*	*	*	*
.	.	.	.	.	.	2.c\	.	.	1A\	-em	.	2e\	ter-	.
.	.	.	8F#/L	.	.	.	.	.	.	.	.	.	.	.
.	.	.	8E/J	.	.	.	.	.	.	.	.	.	.	.
!	!	!	!LO:TX:t=P:problem=kreska pseudotaktowa	!	!	!	!	!	!	!	!	!	!	!
!	!	!	!LO:TX:t=P:problem=♯ above	!	!	!	!	!	!	!	!	!LO:TX:t=P:problem=kreska pseudotaktowa	!	!
.	.	.	2F#X/	.	.	.	.	.	.	.	.	2c/	.	.
.	.	.	.	.	.	4c\	ci-	.	.	.	.	.	.	.
=19-	=19-	=19-	=19-	=19-	=19-	=19-	=19-	=19-	=19-	=19-	=19-	=19-	=19-	=19-
!	!	!	!	!	!	!LO:TX:t=P:problem=kreska pseudotaktowa	!	!	!LO:TX:t=P:problem=kreska pseudotaktowa	!	!	!	!	!
.	.	.	2G/	-rae	.	1B\	-em	.	1G/	.	.	2d\	.	.
.	.	.	4B\	Su-	.	.	.	.	.	.	.	2.g\	.	.
*	*	*	*custos:c	*	*	*	*	*	*	*	*	*	*	*
!	!	!	!LO:TX:t=P:problem=kreska pseudotaktowa	!	!	!	!	!	!	!	!	!	!	!
.	.	.	4B\	-per	.	.	.	.	.	.	.	.	.	.
!	!	!	!LO:LB:g=original	!	!	!	!	!	!	!	!	!	!	!
*	*	*	*	*	*	*	*	*	*Xlig	*	*	*	*	*
*	*	*	*	*	*	*	*	*	*lig	*	*	*	*	*
.	.	.	2.c\	fa-	.	1A\	ter-	.	1A\	ter-	.	.	.	.
.	.	.	.	.	.	.	.	.	.	.	.	8f#X\L	.	.
.	.	.	.	.	.	.	.	.	.	.	.	8e\J	.	.
.	.	.	.	.	.	.	.	.	.	.	.	2f#\	.	.
.	.	.	4c\	-ci-	.	.	.	.	.	.	.	.	.	.
=20-	=20-	=20-	=20-	=20-	=20-	=20-	=20-	=20-	=20-	=20-	=20-	=20-	=20-	=20-
!	!	!	!LO:TX:t=P:problem=kreska pseudotaktowa	!	!	!	!	!	!	!	!	!LO:TX:t=P:problem=kreska pseudotaktowa	!	!
2r	.	.	1B\	-em	.	2D/	-rae	.	1G/	.	.	1g\	-rae	.
*	*	*	*	*	*	*	*ij	*	*	*	*	*	*	*
2GG/	Su-	.	.	.	.	4D/	Su-	.	.	.	.	.	.	.
.	.	.	.	.	.	4D/	-per	.	.	.	.	.	.	.
!LO:TX:t=P:problem=kreska pseudotaktowa	!	!	!	!	!	!LO:TX:t=P:problem=kreska pseudotaktowa	!	!	!	!	!	!	!	!
*	*	*	*	*	*	*	*	*	*Xlig	*	*	*	*	*
2AA/	-per	.	1A\	ter-	.	2.C/	fa-	.	1E/	.	.	1r	.	.
2.C/	fa-	.	.	.	.	.	.	.	.	.	.	.	.	.
.	.	.	.	.	.	4D/	-ci-	.	.	.	.	.	.	.
=21-	=21-	=21-	=21-	=21-	=21-	=21-	=21-	=21-	=21-	=21-	=21-	=21-	=21-	=21-
!	!	!	!LO:TX:t=P:problem=kreska pseudotaktowa	!	!	!	!	!	!LO:TX:t=P:problem=kreska pseudotaktowa	!	!	!	!	!
.	.	.	1G/	-rae	.	2E/	-em	.	1E/,	-rae	.	2r	.	.
4C/	-ci-	.	.	.	.	.	.	.	.	.	.	.	.	.
*	*	*	*	*	*	*	*	*	*	*	*	*custos:A	*	*
!	!	!	!	!	!	!	!	!	!	!	!	!LO:TX:t=P:problem=kreska pseudotaktowa	!	!
!LO:TX:t=P:problem=kreska pseudotaktowa	!	!	!	!	!	!	!	!	!	!	!	!	!	!
2C/	-em	.	.	.	.	2E/	ter-	.	.	.	.	2G/	Su-	.
!	!	!	!	!	!	!	!	!	!	!	!	!LO:LB:g=original	!	!
*lig	*	*	*	*	*	*	*	*	*	*	*	*	*	*
!	!	!	!	!	!	!LO:TX:t=P:problem=kreska pseudotaktowa	!	!	!	!	!	!	!	!
1AA/	ter-	.	2r	.	.	1C/	-rae	.	1E/	Ut	.	2A/	-per	.
*	*	*	*	*	*	*	*Xij	*	*	*	*	*	*	*
.	.	.	2C/	Su-	.	.	.	.	.	.	.	2.c/	.	.
=22-	=22-	=22-	=22-	=22-	=22-	=22-	=22-	=22-	=22-	=22-	=22-	=22-	=22-	=22-
*	*	*	*	*	*	*custos:G	*	*	*	*	*	*	*	*
!	!	!	!	!	!	!LO:TX:t=P:problem=kreska pseudotaktowa	!	!	!	!	!	!	!	!
*	*	*	*	*	*	*	*	*	*lig	*	*	*	*	*
1GG/	.	.	1D/	-per	.	0rF	.	.	1G/	Sci-	.	.	.	.
.	.	.	.	.	.	.	.	.	.	.	.	4c/	fa-	.
.	.	.	.	.	.	.	.	.	.	.	.	2B/	-ci-	.
!	!	!	!	!	!	!	!	!	!	!	!	!LO:TX:t=P:problem=kreska pseudotaktowa	!	!
*Xlig	*	*	*	*	*	*	*	*	*	*	*	*	*	*
!LO:TX:t=P:global:problem=rozdzielacz słów	!	!	!	!	!	!	!	!	!	!	!	!	!	!
2FF,/	-rae	.	1.F/	fa-	.	.	.	.	1A\	.	.	2c/	-em	.
2F\	Ut	.	.	.	.	.	.	.	.	.	.	2A/	ter-	.
!LO:TX:t=P:problem=kreska pseudotaktowa	!	!	!	!	!	!	!	!	!	!	!	!	!	!
*	*	*	*	*	*	*	*	*	*Xlig	*	*	*	*	*
!	!	!	!	!	!	!LO:LB:g=original	!	!	!	!	!	!	!	!
=23-	=23-	=23-	=23-	=23-	=23-	=23-	=23-	=23-	=23-	=23-	=23-	=23-	=23-	=23-
!	!	!	!	!	!	!	!	!	!	!	!	!LO:TX:t=P:problem=kreska pseudotaktowa	!	!
1C/	Sci-	.	.	.	.	2r	.	.	1c\	.	.	1G/	.	.
!	!	!	!LO:TX:t=P:problem=kreska pseudotaktowa	!	!	!LO:TX:t=P:problem=kreska pseudotaktowa	!	!	!	!	!	!	!	!
.	.	.	2E/	-ci-	.	2G/	Ut	.	.	.	.	.	.	.
!	!	!	!	!	!	!	!	!	!LO:TX:t=P:problem=kreska pseudotaktowa	!	!	!	!	!
2FF/	-at	.	4F/	-em	.	2A/	Sci-	.	1A\	-at	.	2F/	-rae	.
.	.	.	4G/	.	.	.	.	.	.	.	.	.	.	.
!LO:TX:t=P::problem=kreska pseudotaktowa&colon;między nutą a kropką	!	!	!	!	!	!	!	!	!	!	!	!	!	!
2.FF/	po-	.	4A/	.	.	4c\	.	.	.	.	.	1f\	Ut	.
.	.	.	4B\	.	.	4B\	.	.	.	.	.	.	.	.
=24-	=24-	=24-	=24-	=24-	=24-	=24-	=24-	=24-	=24-	=24-	=24-	=24-	=24-	=24-
*	*	*	*	*	*	*	*	*	*lig	*	*	*	*	*
.	.	.	1c\	.	.	4A/	.	.	1A\	po-	.	.	.	.
4GG/	.	.	.	.	.	4G/	.	.	.	.	.	.	.	.
4AA/	.	.	.	.	.	1F/	.	.	.	.	.	1c\	Sci-	.
4BB/	.	.	.	.	.	.	.	.	.	.	.	.	.	.
!	!	!	!LO:TX:t=P:problem=kreska pseudotaktowa	!	!	!	!	!	!	!	!	!	!	!
2.C/	.	.	1c\	ter-	.	.	.	.	1G/	.	.	.	.	.
.	.	.	.	.	.	2E/	.	.	.	.	.	2c/	-at	.
4C/	-pu-	.	.	.	.	.	.	.	.	.	.	.	.	.
!LO:TX:t=P:problem=kreska pseudotaktowa	!	!	!	!	!	!LO:TX:t=P:problem=kreska pseudotaktowa	!	!	!	!	!	!LO:TX:t=P:problem=kreska pseudotaktowa	!	!
*	*	*	*	*	*	*	*	*	*Xlig	*	*	*	*	*
=25-	=25-	=25-	=25-	=25-	=25-	=25-	=25-	=25-	=25-	=25-	=25-	=25-	=25-	=25-
!	!	!	!LO:TX:t=P:global:problem=rozdzielacz słów	!	!	!	!	!	!	!	!	!	!	!
2F\	-lus	.	2c,\	-rae	.	2F/	-at	.	1A\	-pu-	.	2c/	po-	.
2.F\	tu	.	2c\	Ut	.	2.A/	po-	.	.	.	.	2.f\	.	.
!	!	!	!	!	!	!	!	!	!LO:TX:t=P:problem=kreska pseudotaktowa	!	!	!	!	!
.	.	.	2A/	Sci-	.	.	.	.	1c\	-lus	.	.	.	.
4G\	.	.	.	.	.	4G/	.	.	.	.	.	4e\	pu-	.
*custos:G	*	*	*	*	*	*	*	*	*	*	*	*	*	*
!LO:TX:t=P:problem=kreska pseudotaktowa	!	!	!	!	!	!	!	!	!	!	!	!	!	!
!	!	!	!LO:TX:t=P:problem=kreska pseudotaktowa	!	!	!	!	!	!	!	!	!LO:TX:t=P:problem=kreska pseudotaktowa	!	!
2A\	.	.	2A/	-at	.	4E/	-pu-	.	.	.	.	2c/	-lus	.
!	!	!	!	!	!	!LO:TX:t=P:problem=kreska pseudotaktowa	!	!	!	!	!	!	!	!
.	.	.	.	.	.	4F#X/	-lus	.	.	.	.	.	.	.
!LO:LB:g=original	!	!	!	!	!	!	!	!	!	!	!	!	!	!
=26-	=26-	=26-	=26-	=26-	=26-	=26-	=26-	=26-	=26-	=26-	=26-	=26-	=26-	=26-
*	*	*	*	*	*	*	*	*	*lig	*	*	*	*	*
0G\	.	.	2d\	po-	.	0G/	tu-	.	1B\	tu-	.	0d\	tu-	.
.	.	.	4d\	-pu-	.	.	.	.	.	.	.	.	.	.
.	.	.	4c\	.	.	.	.	.	.	.	.	.	.	.
.	.	.	4B\	-lus	.	.	.	.	1d\	.	.	.	.	.
.	.	.	2c\	tu-	.	.	.	.	.	.	.	.	.	.
.	.	.	4B\	.	.	.	.	.	.	.	.	.	.	.
*	*	*	*	*	*	*	*	*	*Xlig	*	*	*	*	*
=27-	=27-	=27-	=27-	=27-	=27-	=27-	=27-	=27-	=27-	=27-	=27-	=27-	=27-	=27-
!	!	!	!LO:TX:t=P:problem=kreska pseudotaktowa	!	!	!	!	!	!	!	!	!LO:TX:t=P:problem=kreska pseudotaktowa	!	!
2C/	es	.	1c\	-us	.	2G/	-tus	.	1c\	.	.	1e\	-tus	.
4C/	qui-	.	.	.	.	4E/	qui-	.	.	.	.	.	.	.
!LO:TX:t=P:problem=kreska pseudotaktowa	!	!	!	!	!	!LO:TX:t=P:problem=kreska pseudotaktowa	!	!	!	!	!	!	!	!
4C/	-a	.	.	.	.	4E/	-a	.	.	.	.	.	.	.
*	*	*	*	*	*	*	*	*	*lig	*	*	*	*	*
4E\	tu	.	1r	.	.	4G/	tu	.	1c\	-us	.	1re	.	.
4D\	.	.	.	.	.	4F/	.	.	.	.	.	.	.	.
4E\	.	.	.	.	.	4G/	.	.	.	.	.	.	.	.
4F\	.	.	.	.	.	4A/	.	.	.	.	.	.	.	.
=28-	=28-	=28-	=28-	=28-	=28-	=28-	=28-	=28-	=28-	=28-	=28-	=28-	=28-	=28-
!	!	!	!	!	!	!	!	!	!LO:TX:t=P:problem=kreska pseudotaktowa	!	!	!	!	!
2G\	.	.	2.G/	qui-	.	2B\	.	.	1B\,	.	.	2.d\	qui-	.
2G\	es	.	.	.	.	2D/	es	.	.	.	.	.	.	.
.	.	.	4G/	-a	.	.	.	.	.	.	.	4d\	-a	.
!LO:TX:t=P:problem=kreska pseudotaktowa	!	!	!LO:TX:t=P:problem=kreska pseudotaktowa	!	!	!LO:TX:t=P:problem=kreska pseudotaktowa	!	!	!	!	!	!LO:TX:t=P:problem=kreska pseudotaktowa	!	!
*	*	*	*	*	*	*	*	*	*Xlig	*	*	*	*	*
2.E\	Do-	.	4B\	tu	.	2.G/	Do-	.	1G/	qui-	.	4e\	tu	.
.	.	.	4A/	.	.	.	.	.	.	.	.	4f\	.	.
.	.	.	4B\	.	.	.	.	.	.	.	.	4g\	.	.
4E\	-mi-	.	4c\	.	.	4G/	-mi-	.	.	.	.	4e\	.	.
=29-	=29-	=29-	=29-	=29-	=29-	=29-	=29-	=29-	=29-	=29-	=29-	=29-	=29-	=29-
!LO:TX:t=P:problem=kreska pseudotaktowa	!	!	!	!	!	!	!	!	!	!	!	!	!	!
*	*	*	*	*	*	*	*	*	*lig	*	*	*	*	*
1D\,	-n(us)	.	2d\	.	.	2F/	-n(us)	.	1A\	-a	.	1f\	.	.
*	*	*	*custos:c	*	*	*	*	*	*	*	*	*	*	*
!	!	!	!LO:TX:t=P:problem=kreska pseudotaktowa	!	!	!	!	!	!	!	!	!	!	!
.	.	.	2d\	es	.	2.A/	De-	.	.	.	.	.	.	.
!	!	!	!LO:LB:g=original	!	!	!	!	!	!	!	!	!	!	!
!	!	!	!	!	!	!	!	!	!LO:TX:t=P:problem=kreska pseudotaktowa	!	!	!	!	!
2.AA/	qui-	.	2c\	Do-	.	.	.	.	1c\,	.	.	2e\	es	.
.	.	.	.	.	.	8G/L	.	.	.	.	.	.	.	.
.	.	.	.	.	.	8F/J	.	.	.	.	.	.	.	.
.	.	.	2A/	.	.	2E/	-us	.	.	.	.	4c/	qui-	.
4AA/	-a	.	.	.	.	.	.	.	.	.	.	4c/	-a	.
!	!	!	!LO:TX:t=P:problem=kreska pseudotaktowa	!	!	!LO:TX:t=P:problem=kreska pseudotaktowa	!	!	!	!	!	!LO:TX:t=P:problem=kreska pseudotaktowa	!	!
*	*	*	*	*	*	*	*	*	*Xlig	*	*	*	*	*
=30-	=30-	=30-	=30-	=30-	=30-	=30-	=30-	=30-	=30-	=30-	=30-	=30-	=30-	=30-
4C/	tu	.	2.G/	.	.	1r	.	.	1c\,	tu	.	4e\	tu	.
4BB/	.	.	.	.	.	.	.	.	.	.	.	4d\	.	.
4C/	.	.	.	.	.	.	.	.	.	.	.	4e\	.	.
!LO:TX:t=P:problem=kreska pseudotaktowa	!	!	!	!	!	!	!	!	!	!	!	!	!	!
4D/	.	.	4F/	.	.	.	.	.	.	.	.	4f\	.	.
!	!	!	!	!	!	!	!	!	!LO:TX:t=P:problem=kreska pseudotaktowa	!	!	!LO:TX:t=P:problem=kreska pseudotaktowa	!	!
2E\	.	.	2.E/	.	.	4r	.	.	1c\,	es	.	1g\	.	.
.	.	.	.	.	.	2G/	qui-	.	.	.	.	.	.	.
2E\	es	.	.	.	.	.	.	.	.	.	.	.	.	.
*	*	*	*	*	*	*custos:A	*	*	*	*	*	*	*	*
!	!	!	!	!	!	!LO:TX:t=P:problem=kreska pseudotaktowa	!	!	!	!	!	!	!	!
.	.	.	4D/	-mi-	.	4G/	-a	.	.	.	.	.	.	.
!	!	!	!	!	!	!LO:LB:g=original	!	!	!	!	!	!	!	!
=31-	=31-	=31-	=31-	=31-	=31-	=31-	=31-	=31-	=31-	=31-	=31-	=31-	=31-	=31-
!	!	!	!LO:TX:t=P:problem=kreska pseudotaktowa	!	!	!	!	!	!	!	!	!	!	!
2F\	Do-	.	1C/	-nus	.	4A/	tu	.	1c\	Do-	.	2f\	es	.
.	.	.	.	.	.	4G/	.	.	.	.	.	.	.	.
!LO:TX:t=P::problem=kreska pseudotaktowa&colon;między nutą a kropką	!	!	!	!	!	!	!	!	!	!	!	!	!	!
2.FF/	.	.	.	.	.	4A/	.	.	.	.	.	2.f\	Do-	.
!	!	!	!	!	!	!LO:TX:t=P:problem=kreska pseudotaktowa	!	!	!	!	!	!	!	!
.	.	.	.	.	.	4B\	.	.	.	.	.	.	.	.
*	*	*	*	*	*	*	*	*	*custos:G	*	*	*	*	*
.	.	.	0r	.	.	2c\	.	.	1A\	-mi	.	.	.	.
4GG/	.	.	.	.	.	.	.	.	.	.	.	8e\L	.	.
.	.	.	.	.	.	.	.	.	.	.	.	8d\J	.	.
4AA/	.	.	.	.	.	2F/	es	.	.	.	.	1c\	.	.
4BB/	.	.	.	.	.	.	.	.	.	.	.	.	.	.
=32-	=32-	=32-	=32-	=32-	=32-	=32-	=32-	=32-	=32-	=32-	=32-	=32-	=32-	=32-
!	!	!	!	!	!	!	!	!	!LO:TX:t=P:problem=partia urywa się [dopisane ołówkiem "brak stron 15-40"]	!	!	!	!	!
4C/	.	.	.	.	.	4E/	Do-	.	0ryy	.	.	.	.	.
4D/	.	.	.	.	.	4F/	.	.	.	.	.	.	.	.
2E\	.	.	.	.	.	1G/	.	.	.	.	.	4B/	.	.
*	*	*	*	*	*	*	*	*	*	*	*	*custos:d	*	*
!	!	!	!	!	!	!	!	!	!	!	!	!LO:TX:t=P:problem=kreska pseudotaktowa	!	!
!	!	!	!	!	!	!	!	!	!	!	!	!LO:TX:t=P:problem=♯ below	!	!
.	.	.	.	.	.	.	.	.	.	.	.	4c#X/	.	.
!	!	!	!	!	!	!	!	!	!	!	!	!LO:LB:g=original	!	!
2.D/	.	.	2rF	.	.	.	.	.	.	.	.	2.d\	.	.
!	!	!	!	!	!	!LO:TX:t=P:problem=kreska pseudotaktowa	!	!	!	!	!	!	!	!
!	!	!	!	!	!	!LO:TX:t=P:problem=♯ above	!	!	!	!	!	!	!	!
.	.	.	2.d\	De-	.	2F#X/	-mi-	.	.	.	.	.	.	.
!LO:TX:t=P:problem=kreska pseudotaktowa	!	!	!	!	!	!	!	!	!	!	!	!	!	!
4D/	-mi-	.	.	.	.	.	.	.	.	.	.	4d\	-mi-	.
=33-	=33-	=33-	=33-	=33-	=33-	=33-	=33-	=33-	=33-	=33-	=33-	=33-	=33-	=33-
!	!	!	!	!	!	!	!	!	!	!	!	!LO:TX:t=P:problem=kreska pseudotaktowa	!	!
1GG/	-nus	.	.	.	.	2G/	-n(us)	.	0ryy	.	.	1B/	-nus	.
.	.	.	4c\	.	.	.	.	.	.	.	.	.	.	.
.	.	.	4B\	.	.	2.G/	De-	.	.	.	.	.	.	.
!	!	!	!LO:TX:t=P:problem=kreska pseudotaktowa	!	!	!	!	!	!	!	!	!	!	!
.	.	.	4A/	.	.	.	.	.	.	.	.	.	.	.
2.C/	De-	.	1G/	.	.	.	.	.	.	.	.	2.e\	De-	.
.	.	.	.	.	.	4F/	.	.	.	.	.	.	.	.
.	.	.	.	.	.	2.E/	.	.	.	.	.	.	.	.
!LO:TX:t=P:problem=kreska pseudotaktowa	!	!	!	!	!	!	!	!	!	!	!	!	!	!
4BB/	.	.	.	.	.	.	.	.	.	.	.	4d\	.	.
=34-	=34-	=34-	=34-	=34-	=34-	=34-	=34-	=34-	=34-	=34-	=34-	=34-	=34-	=34-
2.AA/	.	.	2A/	-us	.	.	.	.	0ryy	.	.	2.c/	.	.
.	.	.	.	.	.	4D/	.	.	.	.	.	.	.	.
!	!	!	!	!	!	!LO:TX:t=P:problem=kreska pseudotaktowa	!	!	!	!	!	!	!	!
.	.	.	2.A/	no-	.	2C/	.	.	.	.	.	.	.	.
!	!	!	!	!	!	!	!	!	!	!	!	!LO:TX:t=P:problem=kreska pseudotaktowa	!	!
4GG/	.	.	.	.	.	.	.	.	.	.	.	4B/	.	.
2FF/	.	.	.	.	.	2F/	-us	.	.	.	.	2A/	-us	.
.	.	.	4G/	.	.	.	.	.	.	.	.	.	.	.
*custos:AA	*	*	*	*	*	*	*	*	*	*	*	*	*	*
!LO:TX:t=P:problem=kreska pseudotaktowa	!	!	!	!	!	!	!	!	!	!	!	!	!	!
!	!	!	!LO:TX:t=P:problem=kreska pseudotaktowa	!	!	!	!	!	!	!	!	!	!	!
2DD/	-us	.	2F/	.	.	2.A/	no-	.	.	.	.	1d\	no-	.
!LO:LB:g=original	!	!	!	!	!	!	!	!	!	!	!	!	!	!
=35-	=35-	=35-	=35-	=35-	=35-	=35-	=35-	=35-	=35-	=35-	=35-	=35-	=35-	=35-
1AA/	no-	.	1E/	.	.	.	.	.	0ryy	.	.	.	.	.
.	.	.	.	.	.	8G/L	.	.	.	.	.	.	.	.
.	.	.	.	.	.	8F/J	.	.	.	.	.	.	.	.
.	.	.	.	.	.	4E/	.	.	.	.	.	2c/	.	.
!	!	!	!	!	!	!LO:TX:t=P:problem=kreska pseudotaktowa	!	!	!	!	!	!	!	!
.	.	.	.	.	.	4A/	.	.	.	.	.	.	.	.
!	!	!	!	!	!	!LO:TX:t=P:problem=kreska pseudotaktowa	!	!	!	!	!	!	!	!
2D/	-ſter	.	2F/	-ſter	.	1A\	-ſter	.	.	.	.	2d\	-ſter	.
!	!	!	!	!	!	!	!	!	!	!	!	!LO:TX:t=P:problem=kreska pseudotaktowa	!	!
2.A\	De-	.	2.c\	De-	.	.	.	.	.	.	.	2r	.	.
=36-	=36-	=36-	=36-	=36-	=36-	=36-	=36-	=36-	=36-	=36-	=36-	=36-	=36-	=36-
.	.	.	.	.	.	2.A/	De-	.	0ryy	.	.	2r	.	.
4G\	.	.	4B\	.	.	.	.	.	.	.	.	.	.	.
4F\	.	.	1A\	.	.	.	.	.	.	.	.	2.a\	De-	.
!LO:TX:t=P:problem=kreska pseudotaktowa	!	!	!	!	!	!	!	!	!	!	!	!	!	!
4E\	.	.	.	.	.	4G/	.	.	.	.	.	.	.	.
1D\	.	.	.	.	.	4F/	.	.	.	.	.	.	.	.
.	.	.	.	.	.	4G/	.	.	.	.	.	4g\	.	.
!	!	!	!LO:TX:t=P:problem=kreska pseudotaktowa	!	!	!	!	!	!	!	!	!LO:TX:t=P:problem=kreska pseudotaktowa	!	!
.	.	.	2D/	-us	.	4A/	.	.	.	.	.	2f\	.	.
!	!	!	!	!	!	!LO:TX:t=P:problem=kreska pseudotaktowa	!	!	!	!	!	!	!	!
.	.	.	.	.	.	4B\	.	.	.	.	.	.	.	.
=37-	=37-	=37-	=37-	=37-	=37-	=37-	=37-	=37-	=37-	=37-	=37-	=37-	=37-	=37-
!LO:TX:t=P:problem=kreska pseudotaktowa	!	!	!	!	!	!	!	!	!	!	!	!	!	!
1AA/	-us	.	2E/	no-	.	4c\	.	.	0ryy	.	.	1e\	-us	.
.	.	.	.	.	.	4B\	.	.	.	.	.	.	.	.
.	.	.	2E/	-ſter	.	1A\	-us	.	.	.	.	.	.	.
*lig	*	*	*	*	*	*	*	*	*	*	*	*	*	*
1E\	no-	.	4r	.	.	.	.	.	.	.	.	1.e\	no-	.
.	.	.	2e\	De-	.	.	.	.	.	.	.	.	.	.
!	!	!	!	!	!	!LO:TX:t=P:problem=♯ below	!	!	!	!	!	!	!	!
.	.	.	.	.	.	2G#X/	no-	.	.	.	.	.	.	.
!	!	!	!LO:TX:t=P:problem=kreska pseudotaktowa	!	!	!	!	!	!	!	!	!	!	!
.	.	.	4d\	.	.	.	.	.	.	.	.	.	.	.
=38-	=38-	=38-	=38-	=38-	=38-	=38-	=38-	=38-	=38-	=38-	=38-	=38-	=38-	=38-
!	!	!	!	!	!	!LO:TX:t=P:problem=kreska pseudotaktowa	!	!	!	!	!	!	!	!
1F\	.	.	4c\	.	.	1A\	-ſter	.	0ryy	.	.	.	.	.
.	.	.	4B\	.	.	.	.	.	.	.	.	.	.	.
.	.	.	1A\	.	.	.	.	.	.	.	.	2d\	.	.
*Xlig	*	*	*	*	*	*	*	*	*	*	*	*	*	*
!	!	!	!	!	!	!	!	!	!	!	!	!LO:TX:t=P:problem=kreska pseudotaktowa	!	!
1E\	.	.	.	.	.	2.e\	De-	.	.	.	.	1e\	-ſter	.
!	!	!	!LO:TX:t=P:problem=♯ below	!	!	!	!	!	!	!	!	!	!	!
.	.	.	2G#X/	-us	.	.	.	.	.	.	.	.	.	.
.	.	.	.	.	.	4d\	.	.	.	.	.	.	.	.
=39-	=39-	=39-	=39-	=39-	=39-	=39-	=39-	=39-	=39-	=39-	=39-	=39-	=39-	=39-
!LO:TX:t=P:problem=kreska pseudotaktowa	!	!	!LO:TX:t=P:problem=kreska pseudotaktowa	!	!	!	!	!	!	!	!	!	!	!
1AA/	-ſter	.	1A\	no-	.	4c\	.	.	0ryy	.	.	1.e\	De-	.
*	*	*	*	*	*	*custos:A	*	*	*	*	*	*	*	*
.	.	.	.	.	.	4B\	.	.	.	.	.	.	.	.
!	!	!	!	!	!	!LO:LB:g=original	!	!	!	!	!	!	!	!
.	.	.	.	.	.	1A\	-us	.	.	.	.	.	.	.
2.E\	De-	.	2B\	-ſter	.	.	.	.	.	.	.	.	.	.
!	!	!	!	!	!	!LO:TX:t=P:problem=kreska pseudotaktowa	!	!	!	!	!	!	!	!
!	!	!	!	!	!	!LO:TX:t=P:problem=♯ below	!	!	!	!	!	!	!	!
.	.	.	2.e\	De-	.	2G#X/	no-	.	.	.	.	2e\	-(us)	.
4D/	.	.	.	.	.	.	.	.	.	.	.	.	.	.
=40-	=40-	=40-	=40-	=40-	=40-	=40-	=40-	=40-	=40-	=40-	=40-	=40-	=40-	=40-
4C/	.	.	.	.	.	4A/	.	.	0ryy	.	.	0e\	no-	.
*	*	*	*custos:c	*	*	*	*	*	*	*	*	*	*	*
!	!	!	!LO:TX:t=P:problem=kreska pseudotaktowa	!	!	!	!	!	!	!	!	!	!	!
4BB/	.	.	4d\	.	.	4B\	.	.	.	.	.	.	.	.
!	!	!	!LO:LB:g=original	!	!	!	!	!	!	!	!	!	!	!
!LO:TX:t=P:problem=kreska pseudotaktowa	!	!	!	!	!	!	!	!	!	!	!	!	!	!
2AA/	-us	.	4c\	.	.	2c\	.	.	.	.	.	.	.	.
.	.	.	2A/	-us	.	.	.	.	.	.	.	.	.	.
1E\	no-	.	.	.	.	1B\	.	.	.	.	.	.	.	.
!	!	!	!LO:TX:t=P:problem=♯ obejmujący dwie nuty	!	!	!	!	!	!	!	!	!	!	!
!	!	!	!LO:TX:t=P:problem=♯ below	!	!	!	!	!	!	!	!	!	!	!
.	.	.	8G/L	no-	.	.	.	.	.	.	.	.	.	.
.	.	.	8F#X/J	.	.	.	.	.	.	.	.	.	.	.
!	!	!	!LO:TX:t=P:problem=♯ below	!	!	!	!	!	!	!	!	!	!	!
.	.	.	2G#X/	.	.	.	.	.	.	.	.	.	.	.
=41-	=41-	=41-	=41-	=41-	=41-	=41-	=41-	=41-	=41-	=41-	=41-	=41-	=41-	=41-
!	!	!	!LO:TX:t=P:problem=kreska pseudotaktowa	!	!	!LO:TX:t=P:problem=kreska pseudotaktowa	!	!	!	!	!	!	!	!
1AA/	-ſter	.	1A\	-ſter	.	1A\	-ſter	.	1ryy	.	.	1e\	-ſter	.
=42-	=42-	=42-	=42-	=42-	=42-	=42-	=42-	=42-	=42-	=42-	=42-	=42-	=42-	=42-
*M3/1	*	*	*M3/1	*	*	*M3/1	*	*	*M3/1	*	*	*M3/1	*	*
0D\	qui-	.	0A\	qui-	.	0F/	qui-	.	1%3ryy	.	.	0d\	qui-	.
!LO:TX:t=P:problem=kreska pseudotaktowa	!	!	!LO:TX:t=P:problem=kreska pseudotaktowa	!	!	!LO:TX:t=P:problem=kreska pseudotaktowa	!	!	!	!	!	!LO:TX:t=P:problem=kreska pseudotaktowa	!	!
1D\	-a	.	1d\	-a	.	1F/	-a	.	.	.	.	1d\	-a	.
=43-	=43-	=43-	=43-	=43-	=43-	=43-	=43-	=43-	=43-	=43-	=43-	=43-	=43-	=43-
0A\	tu	.	0c#X\	tu	.	0A\	tu	.	1%3ryy	.	.	0e\	tu	.
!LO:TX:t=P:problem=kreska pseudotaktowa	!	!	!LO:TX:t=P:problem=kreska pseudotaktowa	!	!	!LO:TX:t=P:problem=kreska pseudotaktowa	!	!	!	!	!	!LO:TX:t=P:problem=kreska pseudotaktowa	!	!
1A\	es	.	1c#\	es	.	1A\	es	.	.	.	.	1e\	es	.
=44-	=44-	=44-	=44-	=44-	=44-	=44-	=44-	=44-	=44-	=44-	=44-	=44-	=44-	=44-
1.D\	Do-	.	1.d\	Do-	.	1.A\	Do-	.	1%3ryy	.	.	1.f\	Do-	.
2D/	-mi-	.	2d\	-mi-	.	2A/	-mi-	.	.	.	.	2f\	-mi-	.
!LO:TX:t=P:problem=kreska pseudotaktowa	!	!	!LO:TX:t=P:problem=kreska pseudotaktowa	!	!	!LO:TX:t=P:problem=kreska pseudotaktowa	!	!	!	!	!	!LO:TX:t=P:problem=kreska pseudotaktowa	!	!
1D\	-n(us)	.	1d\	-n(us)	.	1A\	-n(us)	.	.	.	.	1f\	-n(us)	.
=45-	=45-	=45-	=45-	=45-	=45-	=45-	=45-	=45-	=45-	=45-	=45-	=45-	=45-	=45-
0C#X/	De-	.	0e\	De-	.	0A\	De-	.	1%3ryy	.	.	0e\	De-	.
!	!	!	!LO:TX:t=P:problem=kreska pseudotaktowa	!	!	!	!	!	!	!	!	!	!	!
1C#/	-us	.	1e\	-(us)	.	1A\	-us	.	.	.	.	1e\	-(us)	.
=46-	=46-	=46-	=46-	=46-	=46-	=46-	=46-	=46-	=46-	=46-	=46-	=46-	=46-	=46-
0.D\	no-	.	0.d\	no-	.	0.A\	no-	.	1%3ryy	.	.	0.f\	no-	.
=47-	=47-	=47-	=47-	=47-	=47-	=47-	=47-	=47-	=47-	=47-	=47-	=47-	=47-	=47-
*M2/1	*	*	*M2/1	*	*	*M2/1	*	*	*M2/1	*	*	*M2/1	*	*
*met(C|)	*	*	*met(C|)	*	*	*met(C|)	*	*	*met(C|)	*	*	*met(C|)	*	*
!	!	!	!	!	!	!	!	!	!	!	!	!LO:TX:t=P:problem=kreska pseudotaktowa	!	!
2AA/	-ſter	.	2c#X\	-ſer	.	2A/	-ſter	.	0ryy	.	.	1e\	-ſter	.
!	!	!	!LO:TX:t=P:problem=♯ above	!	!	!	!	!	!	!	!	!	!	!
4A\	De-	.	4c#X\	.	.	4A/	De-	.	.	.	.	.	.	.
!LO:TX:t=P:problem=kreska pseudotaktowa	!	!	!LO:TX:t=P:problem=kreska pseudotaktowa	!	!	!LO:TX:t=P:problem=kreska pseudotaktowa	!	!	!	!	!	!	!	!
4G\	.	.	4B\	.	.	4B\	.	.	.	.	.	.	.	.
!	!	!	!	!	!	!	!	!	!	!	!	!LO:LB:g=original	!	!
4F\	.	.	2.A/	De-	.	2c\	.	.	.	.	.	4a\	De-	.
4E\	.	.	.	.	.	.	.	.	.	.	.	4g\	.	.
1D\	.	.	.	.	.	1d\	.	.	.	.	.	4f\	.	.
!	!	!	!LO:TX:t=P:problem=kreska pseudotaktowa	!	!	!	!	!	!	!	!	!LO:TX:t=P:problem=kreska pseudotaktowa	!	!
.	.	.	4G/	.	.	.	.	.	.	.	.	4e\	.	.
=48-	=48-	=48-	=48-	=48-	=48-	=48-	=48-	=48-	=48-	=48-	=48-	=48-	=48-	=48-
.	.	.	2F/	.	.	.	.	.	0ryy	.	.	2f\	.	.
!LO:TX:t=P:problem=kreska pseudotaktowa	!	!	!	!	!	!	!	!	!	!	!	!	!	!
!LO:TX:t=P:problem=♯ below	!	!	!	!	!	!LO:TX:t=P:problem=kreska pseudotaktowa	!	!	!	!	!	!	!	!
2C#X/	-us	.	2A/	-us	.	2e\	-us	.	.	.	.	4e\	-us	.
.	.	.	.	.	.	.	.	.	.	.	.	2a\	no-	.
0D\	no-	.	4F/	no-	.	0d\	no-	.	.	.	.	.	.	.
.	.	.	4E/	.	.	.	.	.	.	.	.	4g\	.	.
.	.	.	4D/	.	.	.	.	.	.	.	.	4f\	.	.
!	!	!	!LO:TX:t=P:problem=kreska pseudotaktowa	!	!	!	!	!	!	!	!	!LO:TX:t=P:problem=kreska pseudotaktowa	!	!
.	.	.	4E/	.	.	.	.	.	.	.	.	4e\	.	.
=49-	=49-	=49-	=49-	=49-	=49-	=49-	=49-	=49-	=49-	=49-	=49-	=49-	=49-	=49-
.	.	.	4F/	.	.	.	.	.	1ryy	.	.	4d\	.	.
.	.	.	4G/	.	.	.	.	.	.	.	.	4e\	.	.
.	.	.	2A/	.	.	.	.	.	.	.	.	2f\	.	.
!	!	!	!LO:TX:a:t=AMDG.	!	!	!	!	!	!	!	!	!	!	!
00AA/;<	-ſter.	.	00A\;<	-ſter.	.	00c#X\;<	-ſter.	.	00ryy	.	.	00e\	-ſter.	.
==	==	==	==	==	==	==	==	==	==	==	==	==	==	==
*-	*-	*-	*-	*-	*-	*-	*-	*-	*-	*-	*-	*-	*-	*-
!!!system-decoration: [(s1,s2,s3,s4,s5)]
!!!RDF**kern: > = above
!!!RDF**kern: < = below
!!!EED: Leszek Kubiak
!!!EST: 2021-03-18
!!!AIN: 1 alto 1 bass 3 tenor
!!!ENC: Andrzej Kubiczek
!!!END: 2021-03-06
